svg/Tango/categories/preferences-system.svg

<?xml version="1.0" encoding="UTF-8" standalone="no"?>
<!-- Created with Inkscape (http://www.inkscape.org/) -->
<svg
   xmlns:dc="http://purl.org/dc/elements/1.1/"
   xmlns:cc="http://creativecommons.org/ns#"
   xmlns:rdf="http://www.w3.org/1999/02/22-rdf-syntax-ns#"
   xmlns:svg="http://www.w3.org/2000/svg"
   xmlns="http://www.w3.org/2000/svg"
   xmlns:xlink="http://www.w3.org/1999/xlink"
   xmlns:sodipodi="http://sodipodi.sourceforge.net/DTD/sodipodi-0.dtd"
   xmlns:inkscape="http://www.inkscape.org/namespaces/inkscape"
   inkscape:export-ydpi="90.000000"
   inkscape:export-xdpi="90.000000"
   inkscape:export-filename="/home/jimmac/Desktop/wi-fi.png"
   width="48px"
   height="48px"
   id="svg11300"
   sodipodi:version="0.32"
   inkscape:version="0.46"
   sodipodi:docbase="/home/jimmac/src/cvs/tango-icon-theme/scalable/categories"
   sodipodi:docname="preferences-system.svg"
   inkscape:output_extension="org.inkscape.output.svg.inkscape">
  <defs
     id="defs3">
    <inkscape:perspective
       sodipodi:type="inkscape:persp3d"
       inkscape:vp_x="0 : 24 : 1"
       inkscape:vp_y="0 : 1000 : 0"
       inkscape:vp_z="48 : 24 : 1"
       inkscape:persp3d-origin="24 : 16 : 1"
       id="perspective60" />
    <linearGradient
       inkscape:collect="always"
       id="linearGradient2250">
      <stop
         style="stop-color:#ffffff;stop-opacity:1;"
         offset="0"
         id="stop2252" />
      <stop
         style="stop-color:#ffffff;stop-opacity:0;"
         offset="1"
         id="stop2254" />
    </linearGradient>
    <linearGradient
       inkscape:collect="always"
       id="linearGradient2265">
      <stop
         style="stop-color:#000000;stop-opacity:1;"
         offset="0"
         id="stop2267" />
      <stop
         style="stop-color:#000000;stop-opacity:0;"
         offset="1"
         id="stop2269" />
    </linearGradient>
    <linearGradient
       inkscape:collect="always"
       id="linearGradient2257">
      <stop
         style="stop-color:#ffffff;stop-opacity:1;"
         offset="0"
         id="stop2259" />
      <stop
         style="stop-color:#ffffff;stop-opacity:0;"
         offset="1"
         id="stop2261" />
    </linearGradient>
    <linearGradient
       id="linearGradient3087">
      <stop
         style="stop-color:#3465a4;stop-opacity:1;"
         offset="0"
         id="stop3089" />
      <stop
         id="stop3095"
         offset="0"
         style="stop-color:#9fbce1;stop-opacity:1;" />
      <stop
         style="stop-color:#6b95ca;stop-opacity:1;"
         offset="0"
         id="stop2242" />
      <stop
         id="stop2244"
         offset="0.75"
         style="stop-color:#3d6aa5;stop-opacity:1;" />
      <stop
         style="stop-color:#386eb4;stop-opacity:1;"
         offset="1"
         id="stop3091" />
    </linearGradient>
    <linearGradient
       id="linearGradient3077">
      <stop
         style="stop-color:#98a0a9;stop-opacity:1;"
         offset="0"
         id="stop3079" />
      <stop
         style="stop-color:#c3d0dd;stop-opacity:1;"
         offset="1"
         id="stop3081" />
    </linearGradient>
    <linearGradient
       id="linearGradient3061">
      <stop
         style="stop-color:#ffffff;stop-opacity:1;"
         offset="0"
         id="stop3063" />
      <stop
         style="stop-color:#000000;stop-opacity:1;"
         offset="1"
         id="stop3065" />
    </linearGradient>
    <linearGradient
       id="linearGradient3049">
      <stop
         style="stop-color:#b6b6b6;stop-opacity:1;"
         offset="0"
         id="stop3051" />
      <stop
         id="stop2262"
         offset="0.5"
         style="stop-color:#f2f2f2;stop-opacity:1;" />
      <stop
         style="stop-color:#fafafa;stop-opacity:1;"
         offset="0.67612958"
         id="stop2264" />
      <stop
         id="stop2268"
         offset="0.84051722"
         style="stop-color:#d8d8d8;stop-opacity:1;" />
      <stop
         id="stop2266"
         offset="0.875"
         style="stop-color:#f2f2f2;stop-opacity:1;" />
      <stop
         style="stop-color:#dbdbdb;stop-opacity:1;"
         offset="1"
         id="stop3053" />
    </linearGradient>
    <linearGradient
       inkscape:collect="always"
       id="linearGradient3041">
      <stop
         style="stop-color:#000000;stop-opacity:1;"
         offset="0"
         id="stop3043" />
      <stop
         style="stop-color:#000000;stop-opacity:0;"
         offset="1"
         id="stop3045" />
    </linearGradient>
    <radialGradient
       inkscape:collect="always"
       xlink:href="#linearGradient3041"
       id="radialGradient3047"
       cx="24.8125"
       cy="39.125"
       fx="24.8125"
       fy="39.125"
       r="17.6875"
       gradientTransform="matrix(1.000000,0.000000,0.000000,0.374558,7.194333e-15,24.47041)"
       gradientUnits="userSpaceOnUse" />
    <linearGradient
       inkscape:collect="always"
       xlink:href="#linearGradient3049"
       id="linearGradient3055"
       x1="19.648342"
       y1="42.253601"
       x2="20.631224"
       y2="6.7758031"
       gradientUnits="userSpaceOnUse"
       gradientTransform="matrix(0.878270,0.000000,0.000000,0.878270,2.536988,4.967681)" />
    <linearGradient
       inkscape:collect="always"
       xlink:href="#linearGradient3061"
       id="linearGradient3067"
       x1="50.152931"
       y1="-3.6324477"
       x2="25.291086"
       y2="-4.3002653"
       gradientUnits="userSpaceOnUse"
       gradientTransform="matrix(0.878270,-1.375944e-15,1.375944e-15,0.878270,5.328299,1.650243)" />
    <linearGradient
       inkscape:collect="always"
       xlink:href="#linearGradient3077"
       id="linearGradient3083"
       x1="38.227654"
       y1="13.602527"
       x2="37.53537"
       y2="6.6285896"
       gradientUnits="userSpaceOnUse"
       gradientTransform="matrix(0.878270,0.000000,0.000000,0.878270,2.847503,5.588712)" />
    <linearGradient
       inkscape:collect="always"
       xlink:href="#linearGradient3087"
       id="linearGradient3093"
       x1="9.7503242"
       y1="32.28376"
       x2="16.915297"
       y2="39.443218"
       gradientUnits="userSpaceOnUse"
       gradientTransform="matrix(0.878270,0.000000,0.000000,0.878270,2.536988,4.967681)" />
    <linearGradient
       inkscape:collect="always"
       xlink:href="#linearGradient2257"
       id="linearGradient2263"
       x1="12.004697"
       y1="35.688461"
       x2="10.650805"
       y2="33.194965"
       gradientUnits="userSpaceOnUse"
       gradientTransform="matrix(1.007254,-2.636526e-2,2.636526e-2,1.007254,1.593411,7.919100e-2)" />
    <linearGradient
       inkscape:collect="always"
       xlink:href="#linearGradient2265"
       id="linearGradient2271"
       x1="14.017542"
       y1="36.942543"
       x2="15.415793"
       y2="38.268368"
       gradientUnits="userSpaceOnUse"
       gradientTransform="matrix(0.878099,-1.732370e-2,1.732370e-2,0.878099,2.163687,4.067899)" />
    <linearGradient
       inkscape:collect="always"
       xlink:href="#linearGradient2250"
       id="linearGradient2256"
       x1="31.177404"
       y1="19.821514"
       x2="40.859177"
       y2="9.6568537"
       gradientUnits="userSpaceOnUse" />
    <radialGradient
       inkscape:collect="always"
       xlink:href="#linearGradient3041"
       id="radialGradient2260"
       gradientUnits="userSpaceOnUse"
       gradientTransform="matrix(1.000000,0.000000,0.000000,0.374558,7.272829e-15,24.47041)"
       cx="24.8125"
       cy="39.125"
       fx="24.8125"
       fy="39.125"
       r="17.6875" />
  </defs>
  <sodipodi:namedview
     stroke="#204a87"
     fill="#3465a4"
     id="base"
     pagecolor="#ffffff"
     bordercolor="#666666"
     borderopacity="0.25490196"
     inkscape:pageopacity="0.0"
     inkscape:pageshadow="2"
     inkscape:zoom="4"
     inkscape:cx="19.425317"
     inkscape:cy="26.37487"
     inkscape:current-layer="layer1"
     showgrid="false"
     inkscape:grid-bbox="true"
     inkscape:document-units="px"
     inkscape:showpageshadow="false"
     inkscape:window-width="1034"
     inkscape:window-height="818"
     inkscape:window-x="400"
     inkscape:window-y="30" />
  <metadata
     id="metadata4">
    <rdf:RDF>
      <cc:Work
         rdf:about="">
        <dc:format>image/svg+xml</dc:format>
        <dc:type
           rdf:resource="http://purl.org/dc/dcmitype/StillImage" />
        <dc:creator>
          <cc:Agent>
            <dc:title>Jakub Steiner</dc:title>
          </cc:Agent>
        </dc:creator>
        <dc:source>http://jimmac.musichall.cz</dc:source>
        <cc:license
           rdf:resource="http://creativecommons.org/licenses/publicdomain/" />
        <dc:title>Preferences System</dc:title>
        <dc:subject>
          <rdf:Bag>
            <rdf:li>preferences</rdf:li>
            <rdf:li>settings</rdf:li>
            <rdf:li>control panel</rdf:li>
            <rdf:li>tweaks</rdf:li>
            <rdf:li>system</rdf:li>
          </rdf:Bag>
        </dc:subject>
      </cc:Work>
      <cc:License
         rdf:about="http://creativecommons.org/licenses/publicdomain/">
        <cc:permits
           rdf:resource="http://creativecommons.org/ns#Reproduction" />
        <cc:permits
           rdf:resource="http://creativecommons.org/ns#Distribution" />
        <cc:permits
           rdf:resource="http://creativecommons.org/ns#DerivativeWorks" />
      </cc:License>
    </rdf:RDF>
  </metadata>
  <g
     id="layer1"
     inkscape:label="Layer 1"
     inkscape:groupmode="layer">
    <path
       transform="matrix(0.751118,0.000000,0.000000,0.578703,17.04087,19.36341)"
       d="M 42.5 39.125 A 17.6875 6.625 0 1 1  7.125,39.125 A 17.6875 6.625 0 1 1  42.5 39.125 z"
       sodipodi:ry="6.625"
       sodipodi:rx="17.6875"
       sodipodi:cy="39.125"
       sodipodi:cx="24.8125"
       id="path2258"
       style="opacity:0.19886367;color:#000000;fill:url(#radialGradient2260);fill-opacity:1;fill-rule:nonzero;stroke:none;stroke-width:1;stroke-linecap:butt;stroke-linejoin:miter;marker:none;marker-start:none;marker-mid:none;marker-end:none;stroke-miterlimit:4;stroke-dasharray:none;stroke-dashoffset:0;stroke-opacity:1;visibility:visible;display:inline;overflow:visible"
       sodipodi:type="arc" />
    <path
       sodipodi:type="arc"
       style="opacity:0.3125;color:#000000;fill:url(#radialGradient3047);fill-opacity:1;fill-rule:nonzero;stroke:none;stroke-width:1;stroke-linecap:butt;stroke-linejoin:miter;marker:none;marker-start:none;marker-mid:none;marker-end:none;stroke-miterlimit:4;stroke-dasharray:none;stroke-dashoffset:0;stroke-opacity:1;visibility:visible;display:inline;overflow:visible"
       id="path3039"
       sodipodi:cx="24.8125"
       sodipodi:cy="39.125"
       sodipodi:rx="17.6875"
       sodipodi:ry="6.625"
       d="M 42.5 39.125 A 17.6875 6.625 0 1 1  7.125,39.125 A 17.6875 6.625 0 1 1  42.5 39.125 z"
       transform="matrix(0.836071,0.000000,0.000000,0.685436,-7.959607,15.71781)" />
    <path
       style="opacity:1;color:#000000;fill:url(#linearGradient3055);fill-opacity:1;fill-rule:nonzero;stroke:#888a85;stroke-width:0.9999997;stroke-linecap:butt;stroke-linejoin:miter;marker:none;marker-start:none;marker-mid:none;marker-end:none;stroke-miterlimit:4;stroke-dasharray:none;stroke-dashoffset:0;stroke-opacity:1;visibility:visible;display:inline;overflow:visible"
       d="M 17.906713,21.215676 L 36.899302,40.6474 C 37.667788,41.52567 40.102812,42.204461 41.729787,40.6474 C 43.300913,39.143787 42.937408,37.024536 41.400436,35.487563 L 23.176333,15.946056 C 25.426333,9.696056 20.872444,4.446488 14.997444,5.571488 L 13.73493,6.7242174 L 17.687145,10.456865 L 17.906713,13.750381 L 14.955871,16.443984 L 11.429472,16.05584 L 7.8066086,12.652544 C 7.8066086,12.652544 6.5364873,13.907448 6.5364873,13.907448 C 5.9457238,19.548765 11.844213,24.590676 17.906713,21.215676 z "
       id="path2140"
       sodipodi:nodetypes="cczcccccccccsc" />
    <path
       sodipodi:nodetypes="cczccccccccccc"
       id="path3057"
       d="M 18.117385,19.9401 L 37.320267,39.967712 C 37.915174,40.647605 39.800194,41.173077 41.059681,39.967712 C 42.275934,38.803723 41.994534,37.163152 40.804721,35.973338 L 22.313189,16.352183 C 23.813189,9.852183 20.454401,6.3475455 15.454401,6.4725455 L 15.18427,6.7459223 L 18.787193,9.982189 L 18.917359,14.163983 L 15.303442,17.462466 L 11.061136,17.004257 L 7.8845536,14.012776 L 7.5319165,14.442835 C 7.2194165,20.411585 14.023635,23.1276 18.117385,19.9401 z "
       style="opacity:0.42613639;color:#000000;fill:none;fill-opacity:1;fill-rule:nonzero;stroke:#ffffff;stroke-width:0.99999917;stroke-linecap:butt;stroke-linejoin:miter;marker:none;marker-start:none;marker-mid:none;marker-end:none;stroke-miterlimit:4;stroke-dasharray:none;stroke-dashoffset:0;stroke-opacity:1;visibility:visible;display:inline;overflow:visible" />
    <rect
       style="opacity:0.17045456;color:#000000;fill:none;fill-opacity:1;fill-rule:nonzero;stroke:url(#linearGradient3067);stroke-width:0.9999972;stroke-linecap:butt;stroke-linejoin:miter;marker:none;marker-start:none;marker-mid:none;marker-end:none;stroke-miterlimit:4;stroke-dasharray:none;stroke-dashoffset:0;stroke-opacity:1;visibility:visible;display:inline;overflow:visible"
       id="rect3059"
       width="23.268276"
       height="2.0554912"
       x="28.185335"
       y="-2.6184492"
       rx="0.88388073"
       ry="0.88388073"
       transform="matrix(0.697938,0.716158,-0.716158,0.697938,0.000000,0.000000)" />
    <path
       style="opacity:1;color:#000000;fill:url(#linearGradient3083);fill-opacity:1;fill-rule:nonzero;stroke:#878f9d;stroke-width:0.9999997;stroke-linecap:butt;stroke-linejoin:miter;marker:none;marker-start:none;marker-mid:none;marker-end:none;stroke-miterlimit:4;stroke-dasharray:none;stroke-dashoffset:0;stroke-opacity:1;visibility:visible;display:inline;overflow:visible"
       d="M 22.498794,30.12538 C 23.332335,29.410917 35.782628,16.676871 35.782628,16.676871 L 38.856573,16.457303 L 43.687058,9.7604906 L 39.662731,6.1752987 L 33.405057,11.554705 L 33.405057,14.628651 L 20.670142,27.857593 C 20.066332,28.461403 21.730308,30.784082 22.498794,30.12538 z "
       id="path2144"
       sodipodi:nodetypes="ccccccccc" />
    <path
       sodipodi:nodetypes="ccccccccc"
       id="path3085"
       d="M 22.401987,29.085455 C 23.04876,28.531078 35.426388,15.855648 35.426388,15.855648 L 38.354971,15.607649 L 42.568887,9.945584 L 39.679156,7.3965946 L 34.202578,12.114067 L 34.357836,14.965022 L 21.681731,28.257345 C 21.213213,28.725863 21.805692,29.596565 22.401987,29.085455 z "
       style="opacity:0.53977272;color:#000000;fill:none;fill-opacity:1;fill-rule:nonzero;stroke:url(#linearGradient2256);stroke-width:1.00000024;stroke-linecap:butt;stroke-linejoin:miter;marker:none;marker-start:none;marker-mid:none;marker-end:none;stroke-miterlimit:4;stroke-dasharray:none;stroke-dashoffset:0;stroke-opacity:1;visibility:visible;display:inline;overflow:visible" />
    <path
       style="color:#000000;fill:url(#linearGradient3093);fill-opacity:1;fill-rule:nonzero;stroke:#204a87;stroke-width:0.9999997;stroke-linecap:butt;stroke-linejoin:miter;stroke-miterlimit:4;stroke-dashoffset:0;stroke-opacity:1;marker:none;marker-start:none;marker-mid:none;marker-end:none;visibility:visible;display:inline;overflow:visible"
       d="M 8.4653111,43.611561 C 9.7818986,45.07679 13.438996,45.739726 15.060755,42.901647 C 15.767862,41.664211 17.154698,38.198845 23.341883,32.630379 C 24.381029,31.696208 25.481792,29.559241 24.54863,28.406512 L 22.133387,25.991269 C 21.145334,24.893432 18.398973,25.40552 17.272212,26.942145 C 13.913455,31.538339 8.4261393,35.197025 7.1887023,35.638967 C 4.8207828,36.484652 5.0872917,39.975116 6.6538792,41.635454 L 8.4653111,43.611561 z "
       id="path2142"
       sodipodi:nodetypes="ccccccscc" />
    <path
       sodipodi:type="arc"
       style="opacity:1;color:#000000;fill:#ffffff;fill-opacity:1;fill-rule:nonzero;stroke:#a1a1a1;stroke-width:1.13860166;stroke-linecap:butt;stroke-linejoin:miter;marker:none;marker-start:none;marker-mid:none;marker-end:none;stroke-miterlimit:4;stroke-dasharray:none;stroke-dashoffset:0;stroke-opacity:1;visibility:visible;display:inline;overflow:visible"
       id="path2146"
       sodipodi:cx="41.875"
       sodipodi:cy="37.5"
       sodipodi:rx="1.375"
       sodipodi:ry="1.375"
       d="M 43.25 37.5 A 1.375 1.375 0 1 1  40.5,37.5 A 1.375 1.375 0 1 1  43.25 37.5 z"
       transform="matrix(0.878270,0.000000,0.000000,0.878270,2.427204,5.077464)" />
    <path
       sodipodi:type="arc"
       style="opacity:0.60227272;color:#000000;fill:#ffffff;fill-opacity:1;fill-rule:nonzero;stroke:none;stroke-width:1;stroke-linecap:butt;stroke-linejoin:miter;marker:none;marker-start:none;marker-mid:none;marker-end:none;stroke-miterlimit:4;stroke-dasharray:none;stroke-dashoffset:0;stroke-opacity:1;visibility:visible;display:inline;overflow:visible"
       id="path3101"
       sodipodi:cx="19.003494"
       sodipodi:cy="28.20101"
       sodipodi:rx="1.767767"
       sodipodi:ry="1.767767"
       d="M 20.771261 28.20101 A 1.767767 1.767767 0 1 1  17.235727,28.20101 A 1.767767 1.767767 0 1 1  20.771261 28.20101 z"
       transform="matrix(0.570876,0.000000,0.000000,0.570876,9.154848,11.25111)" />
    <path
       style="opacity:1;color:#000000;fill:none;fill-opacity:1;fill-rule:nonzero;stroke:url(#linearGradient2263);stroke-width:2.29450917;stroke-linecap:round;stroke-linejoin:round;marker:none;marker-start:none;marker-mid:none;marker-end:none;stroke-miterlimit:4;stroke-dasharray:none;stroke-dashoffset:0;stroke-opacity:1;visibility:visible;display:inline;overflow:visible"
       d="M 18.678905,29.624807 C 18.678905,29.624807 11.509014,36.92442 8.1502573,38.161857"
       id="path3103"
       sodipodi:nodetypes="cc" />
    <path
       sodipodi:nodetypes="csccccscc"
       id="path2270"
       d="M 8.8060013,42.48669 C 10.247267,44.232307 13.405535,44.647919 14.397161,42.116101 C 15.078468,40.376589 17.730783,36.450314 22.594745,32.072748 C 23.411654,31.338363 24.277003,29.658419 23.543411,28.752218 L 21.644704,26.853511 C 20.867961,25.990463 18.708951,26.393033 17.823164,27.601028 C 15.182728,31.214257 9.3398194,35.940582 7.9274145,36.406654 C 5.7406198,37.128264 6.1504221,39.627953 7.3819713,40.933203 L 8.8060013,42.48669 z "
       style="color:#000000;fill:none;fill-opacity:1;fill-rule:nonzero;stroke:#ffffff;stroke-width:0.99999946;stroke-linecap:butt;stroke-linejoin:miter;marker:none;marker-start:none;marker-mid:none;marker-end:none;stroke-miterlimit:4;stroke-dasharray:none;stroke-dashoffset:0;stroke-opacity:1;visibility:visible;display:inline;overflow:visible;opacity:0.19886364" />
    <path
       style="opacity:0.27840911;color:#000000;fill:none;fill-opacity:1;fill-rule:nonzero;stroke:url(#linearGradient2271);stroke-width:2.29450917;stroke-linecap:round;stroke-linejoin:round;marker:none;marker-start:none;marker-mid:none;marker-end:none;stroke-miterlimit:4;stroke-dashoffset:0;stroke-opacity:1;visibility:visible;display:inline;overflow:visible"
       d="M 20.824602,31.261024 C 20.824602,31.261024 13.501839,37.878429 11.910849,42.121069"
       id="path2247"
       sodipodi:nodetypes="cc" />
  </g>
</svg>

<svg xmlns="http://www.w3.org/2000/svg" xmlns:xlink="http://www.w3.org/1999/xlink" viewBox="0 0 48 48"><defs><linearGradient xlink:href="#0" id="9" x1="31.18" y1="19.822" x2="40.859" y2="9.657" gradientUnits="userSpaceOnUse"/><linearGradient id="6" x1="11.1" y1="33.32" x2="17.393" y2="39.609" gradientUnits="userSpaceOnUse"><stop stop-color="#3465a4"/><stop stop-color="#9fbce1"/><stop stop-color="#6b95ca"/><stop offset=".75" stop-color="#3d6aa5"/><stop offset="1" stop-color="#386eb4"/></linearGradient><linearGradient xlink:href="#1" id="8" x1="15.11" y1="36.26" x2="16.363" y2="37.4" gradientUnits="userSpaceOnUse"/><linearGradient xlink:href="#0" id="7" x1="14.626" y1="35.71" x2="13.197" y2="33.23" gradientUnits="userSpaceOnUse"/><linearGradient id="5" x1="36.422" y1="17.535" x2="35.814" y2="11.41" gradientUnits="userSpaceOnUse"><stop stop-color="#98a0a9"/><stop offset="1" stop-color="#c3d0dd"/></linearGradient><linearGradient id="0"><stop stop-color="#fff"/><stop offset="1" stop-color="#fff" stop-opacity="0"/></linearGradient><linearGradient id="4" x1="49.38" y1="-1.54" x2="27.541" y2="-2.127" gradientUnits="userSpaceOnUse"><stop stop-color="#fff"/><stop offset="1"/></linearGradient><linearGradient id="1"><stop/><stop offset="1" stop-opacity="0"/></linearGradient><linearGradient id="3" x1="19.794" y1="42.08" x2="20.657" y2="10.919" gradientUnits="userSpaceOnUse"><stop stop-color="#b6b6b6"/><stop offset=".5" stop-color="#f2f2f2"/><stop offset=".676" stop-color="#fafafa"/><stop offset=".841" stop-color="#d8d8d8"/><stop offset=".875" stop-color="#f2f2f2"/><stop offset="1" stop-color="#dbdbdb"/></linearGradient><radialGradient xlink:href="#1" id="2" cx="24.813" cy="39.12" r="17.688" gradientTransform="matrix(1 0 0 .37456 0 24.47)" gradientUnits="userSpaceOnUse"/></defs><g color="#000"><g fill="url(#2)"><path transform="matrix(.75112 0 0 .5787 17.04 19.363)" d="M42.5 39.125A17.6875 6.625 0 1 1 7.125 39.125 17.6875 6.625 0 1 1 42.5 39.125" opacity=".199"/><path d="M42.5 39.125A17.6875 6.625 0 1 1 7.125 39.125 17.6875 6.625 0 1 1 42.5 39.125" transform="matrix(.83607 0 0 .68544-7.96 15.718)" opacity=".313"/></g><path d="m17.907 21.22l18.993 19.432c.768.878 3.204 1.557 4.83 0 1.571-1.504 1.208-3.623-.329-5.16l-18.224-19.542c2.25-6.25-2.304-11.5-8.179-10.375l-1.263 1.153 3.952 3.733.22 3.294-2.951 2.694-3.526-.388-3.623-3.403c0 0-1.27 1.255-1.27 1.255-.591 5.641 5.308 10.683 11.37 7.308z" fill="url(#3)" stroke="#888a85"/><g fill="none"><path d="m18.12 19.94l19.2 20.03c.595.68 2.48 1.205 3.739 0 1.216-1.164.935-2.805-.255-3.994l-18.492-19.621c1.5-6.5-1.859-10-6.859-9.88l-.27.273 3.603 3.236.13 4.182-3.614 3.298-4.242-.458-3.177-2.991-.353.43c-.313 5.969 6.492 8.685 10.585 5.497z" opacity=".426" stroke="#fff"/><rect width="23.268" height="2.055" x="28.19" y="-2.618" rx=".884" transform="matrix(.69794.71616-.71616.69794 0 0)" opacity=".17" stroke="url(#4)"/></g><path d="m22.499 30.13c.834-.714 13.284-13.449 13.284-13.449l3.074-.22 4.83-6.697-4.02-3.585-6.258 5.379v3.074l-12.735 13.229c-.604.604 1.06 2.926 1.829 2.268z" fill="url(#5)" stroke="#878f9d"/><path d="m22.402 29.09c.647-.554 13.02-13.23 13.02-13.23l2.929-.248 4.214-5.662-2.89-2.549-5.477 4.717.155 2.851-12.676 13.292c-.469.469.124 1.339.72.828z" opacity=".54" fill="none" stroke="url(#9)"/><path d="m8.465 43.612c1.317 1.465 4.974 2.128 6.595-.71.707-1.237 2.094-4.703 8.281-10.271 1.039-.934 2.14-3.071 1.207-4.224l-2.415-2.415c-.988-1.098-3.734-.586-4.861.951-3.359 4.596-8.846 8.255-10.08 8.697-2.368.846-2.101 4.336-.535 5.996l1.811 1.976z" fill="url(#6)" stroke="#204a87"/><g fill="#fff"><path d="M43.25 37.5A1.375 1.375 0 1 1 40.5 37.5 1.375 1.375 0 1 1 43.25 37.5z" transform="matrix(.87827 0 0 .87827 2.427 5.077)" stroke-width="1.139" stroke="#a1a1a1"/><path d="M20.771261 28.20101A1.767767 1.767767 0 1 1 17.235727 28.20101 1.767767 1.767767 0 1 1 20.771261 28.20101" transform="matrix(.57088 0 0 .57088 9.155 11.251)" opacity=".602"/></g><g fill="none"><path d="m18.679 29.625c0 0-7.17 7.3-10.529 8.537" stroke-width="2.295" stroke-linecap="round" stroke-linejoin="round" stroke="url(#7)"/><path d="m8.806 42.487c1.441 1.746 4.6 2.161 5.591-.371.681-1.74 3.334-5.666 8.198-10.04.817-.734 1.682-2.414.949-3.321l-1.899-1.899c-.777-.863-2.936-.46-3.822.748-2.64 3.613-8.483 8.34-9.896 8.806-2.187.722-1.777 3.221-.545 4.527l1.424 1.553z" opacity=".199" stroke="#fff"/><path d="m20.825 31.26c0 0-7.323 6.617-8.914 10.86" opacity=".278" stroke-width="2.295" stroke-linecap="round" stroke-linejoin="round" stroke="url(#8)"/></g></g></svg>
